X: 181
P: Longways for as many as will
M: 3/2
L: 1/8
K: G
[|\
g2 d4 B4 A2 | Bcd2 ABc2 B4 |\
g2 d4 B4 A2 | Bcd2 G2F2 G4 |][|\
f2 a4 f4 d2 | gab2 efg2 f4 |
f2 a4 f4 d2 | def2 AB^c2 d4 |\
g2 d4 B4 c2 | A4- A4 G4 |]

